X: 10452
Q: "Maestoso e lachrymoso."
M: 3/4
L: 1/16
K: Eb
"Symphony."F2 |\
{A}G3F E6 F2 | {A}G3F E6 G2 |\
(c3d/e/) G4 TF4 | E8 z2"^Melody."F2 |\
{A}G3F E6 F2 | {A}G3F E6 G2 |
c3e G4 TF4 | E8 z2"^Symphony."G2 |\
(c3d/e/) G4 TF4 | E8 z2 |]


